X:1
T: The Soldier's Cloak
C:
R:Jig
Q:180
K:D
M:6/8
L:1/16
FG|:A2B2A2 A2F2A2|d4e2 f4d2|e2c2A2 A2G2F2|G6 E2F2G2|
A2B2A2 A2F2A2|d4e2 f4d2|c2e2c2 A2B2c2|1d6 d2c2B2:|2d6 d4g2|
|:f2e2f2 d2e2f2|g6 a4f2|e2c2A2 A2G2F2|G6 E2F2G2|
A2B2A2 A2F2A2|d4e2 f4d2|e2c2A2 A2B2c2|1d6 d4g2:||2d6 d4||
